!!!COM: Robert Schumann
!!!CNT: Deutsch
!!!TXO: Deutsch
!!!OTL: Mit Myrten und Rosen
!!!LYR: Heine
!!!OPR: Ausgewa2hlte Lieder
!!!OPS: Op. 24
!!!ONM: No. 9
!!!ENC: Ben Fuhrman
!!!YOR: Schumann Lieder - Max Friedlaender, ed.,
!!!YOR: New York: C. F. Peters, Vol. 1
!!!ODT: 1840/
!!NB: Vocal melody and text only encoded.
!!NB: First instance of melodic material only encoded.
**kern	**silbe
*clefG2	*
*k[f#c#g#d#a#]	*
*M4/4	*
!!created: 5/16/06 10:08
!!proofed and posted: 5/16/06 10:10
!!edit time: 80 minutes
=4	=4
2r	.
4r	.
8r	.
{8f#	{Mit
=5	=5
4d#	Myr-
(12d#	-ten
12e)	|
12e#	und
(4f#	Ro-
8g#)	|
8a#	-sen,
=6	=6
4b	lieb-
8b	-lich
8b	und
4.dd#}	hold,}
{8cc#	{mit
=7	=7
4b	duft'
(12f##	gen
12g#)	|
12a#	Cy-
4g#	-press-
8d#	-en
8d#	un
=8	=8
[4e	Flit
(12e]	|
12f#)	|
12g#	-ter
8d#}	gold}
{(8g#	{mo2cht'
8f##)	|
8f#	ich
=9	=9
4e	zie-
(12e	-ren
12f#)	|
12f##	dies
4g#	Buch
8a#	wie
8b#	'nen
=10	=10
[4cc#	Tot-
(12cc#]	|
12dd#)	|
12ee	-ten-
4.ee}	schrein,}
{8ee	{und
=11	=11
4.dd#	sar-
8a#	-gen
(8b	mei-
4g#)	|
8g#	-ne
=12	=12
4f#	Lie-
8c#	-der
8c#	hin-
4d#}	-ein.}
8r	.
{8B	{O
=13	=13
4b	ko2nnt'
8gn	ich
8e	die
4f#	Lie-
4B	-be
=14	=14
4b	sar-
8gn	-gen
8e	hin-
4f#}	-zu!}
4r	.
!! rest to measure 16
=16	=16
2r	.
4r	.
{8d#	{Auf
8d#	dem
=17	=17
4g#	Gra-
8g#	-be
8g#	der
6g#	Lie-
6e	-be
6c#	wa2chst
=18	=18
4f#	Blu2m-
8f#	-lein
8f#	der
4.g#}	Ruh',}
{8g#	{da
=19	=19
4cc#	blu2ht
8g#	es
8g#	her-
4.an}	-vor,}
{8e	{da
=20	=20
4an	pflu2ckt
8e	man
8e	es
4f#}	ab,}
{4g#	{doch
=21	=21
4an	mir
4an	blu2ht's
4g#}	nur,}
{8g#	{wenn
8g#	ich
=22	=22
4f#	sel-
8f#	-ber
8f#	im
4g#}	Grab,}
{8g#	{wenn
8g#	ich
=23	=23
4an	sel-
8an	-ber
8an	im
2a#}	Grab.}
!! rest to measure 28
=28	=28
2r	.
4r	.
8r	.
{8f#	{Hier
=29	=29
4d#	sind
8d#	nun
8e#	die
4f#	Lie-
8g#	-der,
8a	die
=30	=30
4..b	einst
16b	so
4dd#}	wild,}
{8cc#	{wie
8cc#	ein
=31	=31
4b	La-
4a#	-va-
4g#	-strom,
8f#	der
8f#	dem
=32	=32
4e	A2t-
(12e	-na-
12f#)	|
12g#	-ent-
4d#}	-quillt,}
8r	.
{8d#	{her-
=33	=33
[4e	-vor
(12e]	|
12f#)	|
12f##	ges-
4g#	tu2rzt
8.a#	aus
16b#	dem
=34	=34
4cc#	tief-
8.cc#	-sten
16cc#	Ge-
4.ee}	-mu2t,}
{8ee	{und
=35	=35
8dd#	rings
8r	.
8a#	viel
8r	.
8b	blit-
8r	.
8g#	-zen-
8g#	-de
=36	=36
4f#	Fun-
8.c#	-ken
16c#	vers-
4d#}	-pru2ht.}
{4B	{Nun
=37	=37
4b	lie-
8gn	-gen
8e	sie
4f#}	stumm}
8r	.
{8B	{und
=38	=38
4.b	to-
8gn	-teng-
4f#	-leich,
4B	nun
=39	=39
4b	star-
8gn	-ren
8e	sie
4f#	kalt
4B	und
=40	=40
(4b	ne-
8gn)	|
8e	-bel-
4d#}	-bleich.}
{8dn	{Doch
8dn	aufs
=41	=41
(4e-	neu'
8en)	|
8en	die
(4d#	al-
8dn)	|
8dn	-te
=42	=42
4e-	Glut
8en	sie
8en	be-
4d#}	-lebt,}
{8f#	{wenn
8f#	der
=43	=43
4.g#	Lie-
8g#	-be
4b	Geist
4g#	einst
=44	=44
(8f#	u2-
8b)	|
8dd#	-ber
8cc#	sie
4b}	schwebt,}
{8a#	{doch
8a#	aufs
=45	=45
4.b	neu'
8f##	die
4.g#	al-
8a#	-te
=46	=46
(8b	Glut
8f##)	|
8f##	sie
8f##	be-
4g#}	-lebt,}
{8g#	{wenn
8g#	der
=47	=47
4.ee	Lie-
8dd#	-be
4cc#	Geist
4g#	einst
=48	=48
2b	u2-
(6a#	-ber
6g#)	|
6a#	sie
=49	=49
2b}	schwebt.}
2r	.
=50	=50
2r	.
4r	.
{8f#	{Und
8f#	es
=51	=51
4f#	wird
8g#	mir
8g#	im
4an	Her-
8b	-zen
8cc#	viel
=52	=52
4.cc#	Ah-
8b	-nung
4g#}	laut,}
8r	.
{8g#	{der
=53	=53
4g#	Lie-
4a#	-be
4b	Geist
4cc#	einst
=54	=54
4dd#	u2-
8cc#	-ber
8cc#	sie
4a#}	taut;}
4r	.
=55	=55
{2g#	{einst
4g#	kommt
4g#	der
=56	=56
2.cc#	Buch
4f#	in
=57	=57
2.g#	dei-
4g#	-ne
=58	=58
2.cc#}	Hand,}
{4cc#	{du
=59	=59
(4dd#	su2-
4cc#	|
4b)	|
4a#	-sses
=60	=60
4b}	Lieb,}
{4a#	{du
4g#	su2-
4f#	-sses
=61	=61
4g#	Lieb,
4f#	im
(4g#	fer-
8f#)	|
8d#	-nen
=62	=62
2c#}	Land.}
4r	.
{4c#	{Dann
=63	=63
4c#	lo2st
8d#	sich
8d#	des
(4e	Lie
8f#)	|
8g#	-des
=64	=64
4.g#	Zau-
8f#	-ber
4d#}	bann,}
8r	.
{8d#	{die
=65	=65
4.c#	blas-
8d#	-sen
4e	Buch-
8f#	-sta-
8g#	-ben
=66	=66
4.g#	schau'n
8f#	dich
4d#}	an,}
{4d#	{sie
=67	=67
4g#	schau-
8g#	-en
8g#	dir
4f#	fle-
8f#	-hend
8f#	ins
=68	=68
4.e#	scho2-
8e#	-ne
4.cc#}	Aug'}
{8cc#	{und
=69	=69
4dd#	flu2-
8a#	-stern
8a#	mit
4b	Weh-
8g#	-mut
8g#	und
=70	=70
[2.f#	Lie-
(12f#]	|
12e)	|
12c#	-bes
=71	=71
2B}	hauch.}
2r	.
==	==
*-	*-
